X: 93
T: Senpolska efter Olof Kjellberg
O: H\"arjedalen, Sweden
R: sen-polska
S: http://folksweden.com/files/098-Senpolska_efter_Olof_Kjellberg.pdf (Tim Rued)
Z: 2021 John Chambers <jc:trillian.mit.edu>
N: Note the 10- and 9-bar parts.
M: 3/4
L: 1/8
K: Am
|:\
e>a e2 B2 | c2 BA/^G/ A2 | A>^G AB cd | ef/e/ de/f/ e2- || e>a e2 B2 | c2 BA/^G/ A2 | A>^G Ac ec |
BA/^G/ Ac ec | BA/^G/ Ac ec | BA/^G/ A4 :: E>[cE] [cE]>[cE] [c2E2] | [cE]>[BE] [BE]>[BE] [B2E2] | B^G AB cd |
ef/e/ de/f/ e2 || E>[cE] [cE]>[cE] [c2E2] | [cE]>[BE] [BE]>[BE] [B2E2] | B>^G Ac ec | B>^G Acec | BA/^G/ A4 :|
